assets/svgs/misc-grey/MiscGrey59.svg

<svg width="47" height="41" viewBox="0 0 47 41" fill="none" xmlns="http://www.w3.org/2000/svg">
<path fill-rule="evenodd" clip-rule="evenodd" d="M43.4371 29.78L32.8261 36.41V11.11L43.4371 4.55V29.78ZM3.61206 11.33L14.5551 4.55V30.17L3.61206 36.51V11.33ZM17.5551 4.34L29.8261 10.8V36.62L17.5551 30.13V4.34ZM45.6671 0.550004C45.1921 0.280004 44.6101 0.290004 44.1481 0.580004L31.5981 8.35L16.7541 0.530004C16.7401 0.520004 16.7251 0.520004 16.7111 0.510004C16.6201 0.470004 16.5251 0.430004 16.4241 0.410004C16.4081 0.400004 16.3931 0.400004 16.3761 0.390004C16.2731 0.370004 16.1661 0.360004 16.0551 0.360004C16.0451 0.360004 16.0351 0.360004 16.0251 0.360004C15.9951 0.360004 15.9651 0.370004 15.9351 0.370004C15.8451 0.380004 15.7581 0.390004 15.6731 0.410004C15.6381 0.420004 15.6041 0.430004 15.5691 0.440004C15.4821 0.470004 15.4001 0.510004 15.3221 0.560004C15.3031 0.570004 15.2831 0.570004 15.2651 0.580004L1.32206 9.22C0.881061 9.5 0.612061 9.98 0.612061 10.5V39.11C0.612061 39.65 0.898061 40.15 1.36306 40.41C1.82806 40.68 2.39906 40.68 2.86406 40.41L16.0881 32.75L30.6251 40.44C30.6401 40.45 30.6571 40.45 30.6731 40.46C30.7461 40.49 30.8231 40.52 30.9021 40.55C30.9331 40.55 30.9611 40.57 30.9921 40.57C31.1001 40.6 31.2111 40.61 31.3261 40.61C31.4551 40.61 31.5771 40.59 31.6961 40.56C31.7281 40.55 31.7571 40.54 31.7881 40.53C31.8891 40.5 31.9841 40.46 32.0731 40.41C32.0881 40.4 32.1061 40.4 32.1211 40.39L45.7311 31.89C46.1701 31.61 46.4371 31.13 46.4371 30.61V1.86C46.4371 1.31 46.1431 0.810004 45.6671 0.550004Z" fill="#1A1919"/>
</svg>

<svg xmlns="http://www.w3.org/2000/svg" fill="none" viewBox="0 0 47 41"><path fill="#1A1919" fill-rule="evenodd" d="M43.437 29.78l-10.61 6.63v-25.3l10.61-6.56v25.23zM3.612 11.33l10.943-6.78v25.62L3.612 36.51V11.33zm13.943-6.99l12.271 6.46v25.82l-12.27-6.49V4.34zM45.667.55a1.479 1.479 0 00-1.519.03l-12.55 7.77L16.754.53c-.014-.01-.029-.01-.043-.02a1.392 1.392 0 00-.287-.1c-.016-.01-.03-.01-.048-.02a1.68 1.68 0 00-.32-.03h-.03c-.03 0-.06.01-.09.01-.09.01-.178.02-.263.04l-.104.03a1.15 1.15 0 00-.247.12c-.019.01-.039.01-.057.02L1.322 9.22c-.44.28-.71.76-.71 1.28v28.61c0 .54.286 1.04.751 1.3.465.27 1.036.27 1.501 0l13.224-7.66 14.537 7.69c.015.01.032.01.048.02.073.03.15.06.23.09.03 0 .058.02.09.02.107.03.218.04.333.04.13 0 .251-.02.37-.05l.092-.03c.101-.03.196-.07.285-.12.015-.01.033-.01.048-.02l13.61-8.5c.44-.28.706-.76.706-1.28V1.86c0-.55-.294-1.05-.77-1.31z" clip-rule="evenodd"/></svg>
